www/source/img/svg/check.svg

<svg width="55" height="55" viewBox="0 0 55 55" fill="none" xmlns="http://www.w3.org/2000/svg">
<path d="M27.5 3.4375C14.2119 3.4375 3.4375 14.2119 3.4375 27.5C3.4375 40.7881 14.2119 51.5625 27.5 51.5625C40.7881 51.5625 51.5625 40.7881 51.5625 27.5C51.5625 14.2119 40.7881 3.4375 27.5 3.4375ZM37.8931 19.6421L26.5815 35.3257C26.4234 35.5463 26.215 35.7261 25.9736 35.8502C25.7321 35.9742 25.4646 36.0389 25.1931 36.0389C24.9217 36.0389 24.6541 35.9742 24.4127 35.8502C24.1712 35.7261 23.9628 35.5463 23.8047 35.3257L17.1069 26.0444C16.9028 25.7598 17.1069 25.3623 17.4561 25.3623H19.9751C20.5229 25.3623 21.0439 25.6255 21.3662 26.0767L25.1904 31.3833L33.6338 19.6743C33.9561 19.2285 34.4717 18.96 35.0249 18.96H37.5439C37.8931 18.96 38.0972 19.3574 37.8931 19.6421Z" fill="#FF6D1C"/>
</svg>

<svg width="55" height="55" fill="none" xmlns="http://www.w3.org/2000/svg"><path d="M27.5 3.438C14.212 3.438 3.437 14.211 3.437 27.5c0 13.288 10.775 24.063 24.063 24.063 13.288 0 24.063-10.775 24.063-24.063 0-13.288-10.775-24.063-24.063-24.063zm10.393 16.204L26.581 35.326a1.71 1.71 0 01-2.776 0l-6.698-9.282a.431.431 0 01.35-.682h2.518a1.71 1.71 0 011.391.715l3.824 5.306 8.444-11.709a1.718 1.718 0 011.39-.714h2.52c.35 0 .553.397.35.682z" fill="#FF6D1C"/></svg>
